resources/svg/major-metafields.svg

<svg xmlns="http://www.w3.org/2000/svg" viewBox="0 0 20 20" fill="currentColor"><path d="M2 2.5a1.5 1.5 0 0 1 1.5-1.5h4a1.5 1.5 0 0 1 1.5 1.5v.5h2v-.5a1.5 1.5 0 0 1 1.5-1.5h4a1.5 1.5 0 0 1 1.5 1.5v.768a2 2 0 0 1 1 1.732v5h-18v-5a2 2 0 0 1 1-1.732v-.768Zm-1 9.5h18v5a2 2 0 0 1-2 2h-14a2 2 0 0 1-2-2v-5Z"/></svg>

<svg xmlns="http://www.w3.org/2000/svg" viewBox="0 0 20 20" fill="currentColor"><path d="M2 2.5A1.5 1.5 0 0 1 3.5 1h4A1.5 1.5 0 0 1 9 2.5V3h2v-.5A1.5 1.5 0 0 1 12.5 1h4A1.5 1.5 0 0 1 18 2.5v.768A2 2 0 0 1 19 5v5H1V5a2 2 0 0 1 1-1.732V2.5ZM1 12h18v5a2 2 0 0 1-2 2H3a2 2 0 0 1-2-2v-5Z" fill="#5C5F62"/></svg>
